X:2040 
T:Pa'ee Ned as Nelly goll thie 
T:Halligan Halligan Linky Long
S:Traditional
N:Nursery song.  See also KV208, 415, 416 and 429. 
C:Thomas Kneen, Port St Mary
O:Isle of Man
Z:Clague collection
B:Kiaull Vannin #40 
M:6/8 
Q:160 
K:G 
GGG BBB|AAA ccc|dBG c2B|(AG)F G3|GGG BBB|AAA ccc|dBG c2B|(AG)F G3| 
g2d e2d|g2d e2d|def (gf)e|dcB A2g|fed c2c|BAB c2c|BdG c2B|AGF G3|| 
